X:322
T:Pencereden das gelir
Z:Jack Campin, http://www.campin.me.uk/
F:Jack Campin's Nine-Note Tunebook
% last edit 03-02-2013
G:Azerbaijani song from the group "Balaban"
B:Balaban, "Azeri Sarkilari" (Izmir 1996)
M:6/8
L:1/8
Q:3/8=120
K:D
P:instrumental intro
 d>cd cd2|=cBc  Bc2|B>AB AB2|.A.A.d A2z:|
=c>Bc Bc2| B>AB AB2|A>GA GA2| G>FG  A2z |
(3=cBA (3cBA (3cBA|(3BAG (3BAG (3BAG|(3AGF (3AGF (3AGF|F>^EF D2z|
 DEF  GA2| G2F  A3 |DEF  GA2| G2G   F3  |
 DEF  GA2| G2F  AA2|DEF  GA2| G2G   F3 ||
P:song
G<AA AA2|G<AA A3 |G<AA  GG2|F>^EF D2z:|
AG2  AG2|F2A  A3 |G<AA  GG2|F>^EF D2z:|
G2A  B3 |A<BB AAG|\
G2A  B3 |A<BB AAG|
F2G  A3 |G<AA GGF|F>^EF D3|]

